!!!!SEGMENT: pl-kozmzk--mzk-m-346--051_walczynski-franciszek--cantantibus-organis-maestoso.krn
!!!cenid: 18xx:2846
!!!COM: Walczyński, Franciszek
!!!COM-rismID: pe30021989
!!!CDT: ~1852-1937
!!!CNT: Polish
!!!GTL: Cantantibus organis op. 10
!!!OTL: 51. Maestoso
!!!PDT: 1898
!!!AGN: Secular
!!!SMS-siglum: PL-KOZmzk
!!!SMS-shelfmark: mzk/m/346
!!!SMS-shelfwork: 051 G
!!!SMS-variant:
!!!SMS-altvar:
!!!NIFC-rismSourceID: 1001099615
!!!NIFC-rismChildID: 1001109653
!!!NIFC-islandoraID: pl-kozmzk:7453
!!!URL-pdf-islandora: https://repozytorium.nifc.pl/islandora/object/pl-kozmzk%3A7453/datastream/PDF/view
!!!URL-scan: https://polish.musicsources.pl/pl/lokalizacje/galeria/druki-muzyczne/7581 @EN{Scan on Polish Music Sources Website} @PL{Skany w portalu Dziedzictwo Muzyki Polskiej w otwartym dostępie}
!!!ONB-nifc:
!!!OMD: Maestoso.
!!!AIN: 1 empty
!!!key:
**kern	**kern	**dynam
*part1	*part1	*part1
*staff2	*staff1	*
*Iempty	*Iempty	*
*I	*I"51.	*
*clefF4	*clefG2	*
*k[b-e-a-]	*k[b-e-a-]	*
*c:	*c:	*
*M6/4	*M6/4	*
=1	=1	=1
*	*	*^
!LO:TX:b:i:t=Ped.	!	!	!LO:DY:b=2:rj
8CL 8CC/	[2.cc [2.g [2.e-/	f <	f
8DJ 8DD/	.	.	.
4E- 4EE-/	.	.	.
4G 4GG/	.	.	.
4E- 4EE-/	2.cc] 2.g] 2.e-/]	.	.
4D 4DD/	.	.	.
4C 4CC/	.	.	.
*	*	*v	*v
=2	=2	=2
8FL 8FF/	[2.cc [>2.a- [2.f/	.
8GJ 8GG/	.	.
4A- 4AA-\	.	.
4c 4C\	.	.
4A- 4AA-\	2.cc] 2.a-] 2.f/]	.
4G 4GG/	.	.
4F 4FF/	.	[
=3	=3	=3
8CL 8CC/	[2.cc [2.g [2.e-/	.
8DJ 8DD/	.	.
4E- 4EE-/	.	.
4G 4GG/	.	.
4E- 4EE-/	2.cc] 2.g] 2.e-/]	.
4D 4DD/	.	.
4C 4CC/	.	.
=4	=4	=4
8GL 8GG/	[2.bn [>2.g [2.d/	.
8F#XJ 8FF#X/	.	.
4G 4GG/	.	.
[4A- [4AA-^\	.	.
4A-] 4AA-\]	2.b] 2.g] 2.d/]	.
4G 4GG/	.	.
4Fn 4FFn/	.	.
=5	=5	=5
4E- 4EE-/	4cc 4g/	f
4D 4DD/	4dd 4bn 4g\	.
4C 4CC/	4ee- 4cc 4g\	.
4A- 4AA-\	4ff 4cc 4f\	.
4.G 4.GG^>/	4ee- 4cc 4g\	.
.	4dd 4b 4g\	.
8F 8FF/	.	.
=6	=6	=6
[2.E- [2.EE-/	[2.gg [2.cc [2.g\	.
2E-] 2EE-/]	2gg] 2cc] 2g\]	.
4r	4r	.
!!LO:LB:g=original
=7	=7	=7
*	*^	*
8FL 8FF/	2.aa- 2.ff/	(2cc\	ff
8GJ 8GG/	.	.	.
4A- 4AA-\	.	.	.
4Bn 4BBn\	.	4dd\)	.
4c 4C\	4gg/	4ee- 4cc\	.
8GL 8GG/	4bbn/	4gg 4dd\	.
8FJ 8FF/	.	.	.
4E- 4EE-/	4ccc/	4gg [4cc\	.
=8	=8	=8	=8
4F 4FF/	4aa-/	4ff 4cc\]	.
2G 2GG/	2gg/	4ee- 4cc\	>
.	.	4dd 4bn\	.
2.c 2.C\	2.cc/	2.g 2.e-\	]]
*	*v	*v	*
=9	=9	=9
!	!LO:TX:b:i:t=più lento	!
8CL 8CC/	[2.cc [2.g [2.e-/	p
8DJ 8DD/	.	.
4E- 4EE-/	.	.
4G 4GG/	.	.
4E- 4EE-/	2.cc] 2.g] 2.e-/]	.
4D 4DD/	.	.
4C 4CC/	.	.
=10	=10	=10
8CL 8CC/	[2.cc [2.g [2.e-/	pp
8DJ 8DD/	.	.
4E- 4EE-/	.	.
4G 4GG/	.	.
4E- 4EE-/	2.cc] 2.g] 2.e-/]	.
4D 4DD/	.	.
4C 4CC/	.	.
=11	=11	=11
!	!LO:TX:b:i:t=perdendosi	!
8CL 8CC/	[2.cc [2.g [2.e-/	.
8DJ 8DD/	.	.
4E- 4EE-/	.	.
4G 4GG/	.	.
4E- 4EE-/	2.cc] 2.g] 2.e-/]	.
4D 4DD/	.	.
4C 4CC/	.	.
=12	=12	=12
*	*^	*
!	!LO:TX:b:i:t=molto rit.	!	!
8FL 8FF^>/	2cc/	2.a- 2.f\	ff
8GJ 8GG^>/	.	.	.
4A- 4AA-^>\	.	.	.
8GL 8GG^>/	4dd/	.	.
8FJ 8FF^>/	.	.	.
2.C 2.CC;/	2.een 2.cc;/	2.g 2.en\	.
*	*v	*v	*
==	==	==
*-	*-	*-
!!!system-decoration: {(s1,s2)}
!!!RDF**kern: > = above
!!!RDF**kern: < = below
!!!ENC: Andrzej Kubiczek
!!!END: 2021-08-09
!!!ENC: Andrzej Gręziak
!!!END: 2021-07-28
!!!YEC: Copyright 2022 Narodowy Instytut Fryderyka Chopina (https://polishscores.org)
!!!YEM: License CC-BY-4.0 (https://creativecommons.org/licenses/by/4.0)
